docs/img/edit.svg

<svg width="24" height="24" viewBox="0 0 24 24" fill="none" xmlns="http://www.w3.org/2000/svg">
<path fill-rule="evenodd" clip-rule="evenodd" d="M19.2072 3.20696C18.8166 2.81643 18.1835 2.81643 17.793 3.20696L16.0001 4.99985L19.0001 7.99985L20.793 6.20696C21.1835 5.81643 21.1835 5.18327 20.793 4.79274L19.2072 3.20696ZM18.0001 8.99985L15.0001 5.99985L4.00006 16.9998L3 21L7.00006 19.9998L18.0001 8.99985Z" fill="black"/>
</svg>

<svg width="24" height="24" fill="none" xmlns="http://www.w3.org/2000/svg"><path fill-rule="evenodd" clip-rule="evenodd" d="M19.207 3.207a1 1 0 00-1.414 0L16 5l3 3 1.793-1.793a1 1 0 000-1.414l-1.586-1.586zM18 9l-3-3L4 17l-1 4 4-1L18 9z" fill="#000"/></svg>
